X:227
T:Miltown Maid, The  
S:McFadden
B:ONMI.1329
F:file ID: onmi.reels/227mmaid
Z:Brennan/Black
N:Source m.4 = |(3fed (3edc dAFA|
Q:180
R:reel
M:C|
L:1/8
K:D
dc|BEE2 Bdcd|(3BAF DF dAFA|BEE2 Bdce|fdec dAFA|
BEE2 Bdcd|(3BAF DF dAFA|BABc dcde|(3fed ec dAFA||
Beec d2dc|Beed dAFA|Beec dfag|fedc dAFA|
Beec d2dc|Beec defg|afba gfeg|(3fga ef dfec|\
"final"d8|]

